X: 142
M:4/4
L:1/8
Q:160
K:C
|:A2|B3 A Bc d2|G3 A G2 G2|c2 c2 dede|c6 c2|B3 A Bc d2| G3 A G2 c2|B2 A2 A2 ^G2|A6:|

